X: 2
T: Babes In The Wood
M: 4/4
L: 1/8
R: reel
K: A Major
|: E2 |\
A3 c ecAc | e2 a2 g2 f2 | e3 c ecAc | B2 d2 c2 B2 | 
A3 c ecAc | e2 a2 g2 f2 | e3 c a2 c2 | B4 A2 :|
|: E2 |\
E3 G BGEG | B2 d2 c2 B2 | A3 c ecAc | e2 a2 g2 f2 |
e3 c a3 f | e3 c a3 f | e2 c2 a2 c2 | B4 A2 :|
